X:209
T: Schn Elschen (3-54), S. 142
N: K1184
O: Luxemburg
S: KINTZELE, Guillaume: An der Ucht, Bd. 3 Luxemburg 1928]
N: in der Quelle mit einer 2. Stimme versehen
R: Scherzlied, Verfhrung]
M: 2/4
L: 1/16
K: F
C2 | A2A2c2c2 | B3AG4 | z
FEFG2A2 | F4z2
D2 | B2B2d2d2 | B3AG4 | z
FEFG2c2 | c4f4 |
zAGAB2E2 | F4z2

@@@ Tune index: 8263
